<?xml version="1.0" encoding="UTF-8"?>
<map version="1.4" tiledversion="1.4.2" orientation="orthogonal" renderorder="right-down" width="32" height="32" tilewidth="8" tileheight="8" infinite="0" backgroundcolor="#0b0b0b" nextlayerid="7" nextobjectid="1">
 <tileset firstgid="1" source="ascii_plus.tsx"/>
 <layer id="2" name="Cave" width="32" height="32">
  <data encoding="csv">
0,0,0,0,0,0,0,0,0,0,0,0,0,0,0,0,33,0,0,0,0,0,0,0,0,0,0,0,0,0,0,0,
0,0,0,0,0,0,0,0,0,0,0,0,0,0,0,0,33,0,0,0,0,0,0,0,0,0,0,0,0,0,0,0,
0,0,0,0,0,0,0,0,0,0,0,68,0,0,0,0,33,0,0,68,0,0,0,0,0,0,0,0,0,0,0,0,
0,0,0,0,0,0,68,0,0,0,68,0,68,0,0,0,33,0,67,67,0,0,0,0,68,68,0,0,0,0,0,0,
0,0,0,0,0,0,0,68,68,68,0,0,0,67,67,2,33,67,67,67,67,67,67,67,68,0,0,0,0,0,0,0,
0,0,0,0,0,0,0,0,0,0,68,0,0,67,67,67,33,67,0,67,67,212,212,67,0,0,0,0,0,0,0,0,
0,0,0,0,0,0,0,0,68,68,0,67,67,67,0,0,33,3,0,0,212,2,67,67,0,0,0,0,0,0,0,0,
0,0,0,0,0,0,0,0,0,0,67,2,0,0,2,70,70,70,0,0,0,67,67,0,0,0,0,0,0,0,0,0,
0,0,0,0,0,0,0,0,0,67,212,0,0,2,1,0,33,0,0,2,0,67,0,0,0,0,0,0,0,0,0,0,
0,0,0,0,0,0,68,0,0,67,0,0,0,0,2,3,33,0,0,1,0,67,0,0,0,68,0,0,68,0,0,0,
0,0,0,0,0,0,0,68,0,67,0,35,0,0,0,33,33,33,3,0,0,67,67,67,67,67,67,68,0,0,0,0,
0,0,0,0,0,0,68,0,67,68,4,0,0,3,33,33,33,33,33,3,0,0,67,67,0,67,67,0,0,0,0,0,
0,0,0,0,0,68,68,67,67,4,4,0,0,0,0,33,33,33,3,2,2,0,0,0,67,67,0,0,0,0,0,0,
0,0,0,0,0,0,0,67,67,2,0,0,2,0,1,1,33,0,0,0,0,2,0,3221225509,67,0,0,0,0,0,0,0,
0,0,68,0,0,0,0,0,67,67,67,0,212,0,0,1,0,2,0,68,3221225509,0,3221225509,3221225509,67,67,0,0,0,0,0,0,
0,0,0,68,68,0,0,67,67,67,67,0,0,0,2,0,0,0,67,67,0,0,212,0,67,67,0,0,0,0,0,0,
0,0,0,68,67,67,67,67,67,0,67,67,4,0,0,282,0,0,67,68,67,67,0,67,67,0,0,0,0,0,0,0,
0,0,0,0,67,67,67,0,0,0,0,67,0,2,282,282,0,68,67,68,0,67,0,67,67,67,0,0,0,0,0,0,
0,0,0,0,67,67,67,0,0,0,0,67,67,0,0,0,0,0,67,0,0,67,67,67,67,67,67,0,0,0,0,0,
0,0,0,68,68,0,0,0,0,66,0,9,67,67,67,0,0,67,67,0,0,0,0,67,0,0,67,67,0,0,0,0,
0,0,68,0,0,0,0,65,65,65,65,0,0,0,67,67,0,67,0,68,0,0,0,68,0,0,67,67,67,0,0,0,
0,0,0,68,0,0,0,65,35,0,65,0,0,0,65,66,9,67,0,0,0,0,0,0,68,0,0,0,0,68,0,0,
0,0,68,0,0,0,66,65,9,9,65,65,65,65,65,9,9,66,68,0,68,0,0,0,68,0,0,0,0,0,0,0,
0,0,0,0,0,0,0,65,0,0,97,0,0,0,97,0,226,9,0,68,0,0,0,0,0,0,0,0,0,0,0,0,
0,0,0,0,0,0,0,65,2,0,65,65,98,65,65,0,0,9,0,0,67,0,0,0,0,0,0,0,0,0,0,0,
0,0,0,0,0,0,0,65,35,2,65,0,69,0,65,0,0,66,67,67,67,0,0,0,0,0,0,0,0,0,0,0,
0,0,0,0,0,0,0,65,65,65,65,0,69,0,65,65,65,65,68,0,0,68,0,0,0,0,0,0,0,0,0,0,
0,0,0,0,0,0,0,0,0,0,0,0,69,0,0,68,68,0,68,0,0,0,0,0,0,0,0,0,0,0,0,0,
0,0,0,0,0,0,0,0,0,0,0,66,0,0,0,0,68,68,0,0,0,0,0,0,0,0,0,0,0,0,0,0,
0,0,0,0,0,0,0,0,0,0,0,0,69,0,0,0,0,0,0,0,0,0,0,0,0,0,0,0,0,0,0,0,
0,0,0,0,0,0,0,0,0,0,0,0,0,0,0,0,0,0,0,0,0,0,0,0,0,0,0,0,0,0,0,0,
0,0,0,0,0,0,0,0,0,0,0,0,0,0,0,0,0,0,0,0,0,0,0,0,0,0,0,0,0,0,0,0
</data>
 </layer>
 <layer id="3" name="Monochrome A" width="32" height="32" visible="0">
  <data encoding="csv">
1023,1023,1023,1023,1023,1023,1023,1023,1023,1023,1023,1023,1023,1023,1023,1023,1023,1023,1023,1023,1023,1023,1023,1023,1023,1023,1023,1023,1023,1023,1023,1023,
1023,1023,1023,1023,1023,1023,1023,1023,1023,1023,1023,1023,1023,1023,1023,1023,1023,1023,1023,1023,1023,1023,1023,1023,1023,1023,1023,1023,1023,1023,1023,1023,
1023,1023,1023,1023,1023,1023,1023,1023,1023,1023,1023,1023,1023,1023,1023,1023,1023,1023,1023,1023,1023,1023,1023,1023,1023,1023,1023,1023,1023,1023,1023,1023,
1023,1023,1023,1023,1023,1023,1023,1023,1023,1023,1023,1023,1023,1023,1023,1023,1023,1023,1023,1023,1023,1023,1023,1023,1023,1023,1023,1023,1023,1023,1023,1023,
1023,1023,1023,1023,1023,1023,1023,1023,1023,1023,1023,1023,1023,1023,1023,1023,1023,1023,1023,1023,1023,1023,1023,1023,1023,1023,1023,1023,1023,1023,1023,1023,
1023,1023,1023,1023,1023,1023,1023,1023,1023,1023,1023,1023,1023,1023,1023,1023,1023,1023,1023,1023,1023,1023,1023,1023,1023,1023,1023,1023,1023,1023,1023,1023,
1023,1023,1023,1023,1023,1023,1023,1023,1023,1023,1023,1023,1023,1023,1023,1023,1023,1023,1023,1023,1023,1023,1023,1023,1023,1023,1023,1023,1023,1023,1023,1023,
1023,1023,1023,1023,1023,1023,1023,1023,1023,1023,1023,1023,1023,1023,1023,1023,1023,1023,1023,1023,1023,1023,1023,1023,1023,1023,1023,1023,1023,1023,1023,1023,
1023,1023,1023,1023,1023,1023,1023,1023,1023,1023,1023,1023,1023,1023,1023,1023,1023,1023,1023,1023,1023,1023,1023,1023,1023,1023,1023,1023,1023,1023,1023,1023,
1023,1023,1023,1023,1023,1023,1023,1023,1023,1023,1023,1023,1023,1023,1023,1023,1023,1023,1023,1023,1023,1023,1023,1023,1023,1023,1023,1023,1023,1023,1023,1023,
1023,1023,1023,1023,1023,1023,1023,1023,1023,1023,1023,1023,1023,1023,1023,1023,1023,1023,1023,1023,1023,1023,1023,1023,1023,1023,1023,1023,1023,1023,1023,1023,
1023,1023,1023,1023,1023,1023,1023,1023,1023,1023,1023,1023,1023,1023,1023,1023,1023,1023,1023,1023,1023,1023,1023,1023,1023,1023,1023,1023,1023,1023,1023,1023,
1023,1023,1023,1023,1023,1023,1023,1023,1023,1023,1023,1023,1023,1023,1023,1023,1023,1023,1023,1023,1023,1023,1023,1023,1023,1023,1023,1023,1023,1023,1023,1023,
1023,1023,1023,1023,1023,1023,1023,1023,1023,1023,1023,1023,1023,1023,1023,1023,1023,1023,1023,1023,1023,1023,1023,1023,1023,1023,1023,1023,1023,1023,1023,1023,
1023,1023,1023,1023,1023,1023,1023,1023,1023,1023,1023,1023,1023,1023,1023,1023,1023,1023,1023,1023,1023,1023,1023,1023,1023,1023,1023,1023,1023,1023,1023,1023,
1023,1023,1023,1023,1023,1023,1023,1023,1023,1023,1023,1023,1023,1023,1023,1023,1023,1023,1023,1023,1023,1023,1023,1023,1023,1023,1023,1023,1023,1023,1023,1023,
1023,1023,1023,1023,1023,1023,1023,1023,1023,1023,1023,1023,1023,1023,1023,1023,1023,1023,1023,1023,1023,1023,1023,1023,1023,1023,1023,1023,1023,1023,1023,1023,
1023,1023,1023,1023,1023,1023,1023,1023,1023,1023,1023,1023,1023,1023,1023,1023,1023,1023,1023,1023,1023,1023,1023,1023,1023,1023,1023,1023,1023,1023,1023,1023,
1023,1023,1023,1023,1023,1023,1023,1023,1023,1023,1023,1023,1023,1023,1023,1023,1023,1023,1023,1023,1023,1023,1023,1023,1023,1023,1023,1023,1023,1023,1023,1023,
1023,1023,1023,1023,1023,1023,1023,1023,1023,1023,1023,1023,1023,1023,1023,1023,1023,1023,1023,1023,1023,1023,1023,1023,1023,1023,1023,1023,1023,1023,1023,1023,
1023,1023,1023,1023,1023,1023,1023,1023,1023,1023,1023,1023,1023,1023,1023,1023,1023,1023,1023,1023,1023,1023,1023,1023,1023,1023,1023,1023,1023,1023,1023,1023,
1023,1023,1023,1023,1023,1023,1023,1023,1023,1023,1023,1023,1023,1023,1023,1023,1023,1023,1023,1023,1023,1023,1023,1023,1023,1023,1023,1023,1023,1023,1023,1023,
1023,1023,1023,1023,1023,1023,1023,1023,1023,1023,1023,1023,1023,1023,1023,1023,1023,1023,1023,1023,1023,1023,1023,1023,1023,1023,1023,1023,1023,1023,1023,1023,
1023,1023,1023,1023,1023,1023,1023,1023,1023,1023,1023,1023,1023,1023,1023,1023,1023,1023,1023,1023,1023,1023,1023,1023,1023,1023,1023,1023,1023,1023,1023,1023,
1023,1023,1023,1023,1023,1023,1023,1023,1023,1023,1023,1023,1023,1023,1023,1023,1023,1023,1023,1023,1023,1023,1023,1023,1023,1023,1023,1023,1023,1023,1023,1023,
1023,1023,1023,1023,1023,1023,1023,1023,1023,1023,1023,1023,1023,1023,1023,1023,1023,1023,1023,1023,1023,1023,1023,1023,1023,1023,1023,1023,1023,1023,1023,1023,
1023,1023,1023,1023,1023,1023,1023,1023,1023,1023,1023,1023,1023,1023,1023,1023,1023,1023,1023,1023,1023,1023,1023,1023,1023,1023,1023,1023,1023,1023,1023,1023,
1023,1023,1023,1023,1023,1023,1023,1023,1023,1023,1023,1023,1023,1023,1023,1023,1023,1023,1023,1023,1023,1023,1023,1023,1023,1023,1023,1023,1023,1023,1023,1023,
1023,1023,1023,1023,1023,1023,1023,1023,1023,1023,1023,1023,1023,1023,1023,1023,1023,1023,1023,1023,1023,1023,1023,1023,1023,1023,1023,1023,1023,1023,1023,1023,
1023,1023,1023,1023,1023,1023,1023,1023,1023,1023,1023,1023,1023,1023,1023,1023,1023,1023,1023,1023,1023,1023,1023,1023,1023,1023,1023,1023,1023,1023,1023,1023,
1023,1023,1023,1023,1023,1023,1023,1023,1023,1023,1023,1023,1023,1023,1023,1023,1023,1023,1023,1023,1023,1023,1023,1023,1023,1023,1023,1023,1023,1023,1023,1023,
1023,1023,1023,1023,1023,1023,1023,1023,1023,1023,1023,1023,1023,1023,1023,1023,1023,1023,1023,1023,1023,1023,1023,1023,1023,1023,1023,1023,1023,1023,1023,1023
</data>
 </layer>
 <layer id="4" name="Monochrome B" width="32" height="32" visible="0">
  <data encoding="csv">
709,709,709,709,709,706,0,709,709,709,709,706,775,0,0,0,0,0,0,776,706,709,0,709,709,709,709,709,709,709,709,709,
709,709,706,0,0,0,0,0,0,0,0,0,779,0,0,0,0,0,770,775,0,0,0,0,0,0,0,0,0,706,709,709,
709,706,775,775,776,779,775,777,775,770,770,775,776,706,779,775,775,776,775,775,777,775,775,776,777,770,775,775,775,775,706,709,
709,0,776,804,0,0,0,0,0,0,0,0,0,0,0,775,776,0,0,0,0,779,0,779,0,0,0,0,0,776,706,709,
709,0,775,0,776,0,775,0,775,0,775,0,775,0,0,776,777,0,0,776,0,776,0,775,0,775,0,776,0,776,0,0,
709,0,776,0,775,0,775,0,775,0,0,0,775,0,775,779,775,775,0,775,0,775,0,775,0,0,0,770,0,775,0,709,
706,0,775,0,777,0,776,0,770,0,0,0,779,0,801,0,0,801,0,775,0,775,0,0,0,0,0,775,0,775,0,706,
709,0,775,0,775,0,776,0,0,0,0,0,0,0,775,775,775,775,0,775,0,775,0,0,0,0,0,770,0,770,0,709,
0,0,770,0,775,0,775,0,770,0,0,964,897,0,0,777,779,0,0,775,0,776,0,775,0,0,706,770,0,0,0,0,
706,0,775,0,0,0,779,0,0,0,0,0,0,0,0,779,775,0,0,0,0,0,0,0,909,0,0,0,0,770,0,0,
0,0,775,0,775,776,779,0,775,776,775,776,775,779,801,775,775,801,775,775,777,775,777,775,0,778,775,775,0,775,0,0,
709,0,775,775,775,0,775,775,775,0,0,0,0,775,0,0,0,0,775,0,0,0,706,775,775,778,0,775,770,775,0,0,
0,0,0,706,0,0,0,0,706,0,0,0,706,776,0,930,0,964,775,0,0,0,0,706,0,0,0,0,0,0,0,0,
709,0,0,0,0,0,0,0,0,0,0,706,775,775,0,0,0,964,777,775,0,0,0,0,0,0,0,0,0,0,0,706,
706,709,0,0,0,0,709,709,709,0,0,0,775,0,984,0,0,0,0,777,0,0,0,0,0,0,0,0,706,0,706,705,
709,709,0,0,706,709,709,709,709,0,0,0,778,775,775,801,801,775,776,775,706,0,0,706,706,0,964,0,709,0,706,709,
0,709,709,709,709,709,706,0,0,0,0,0,0,0,0,773,773,0,0,0,0,0,706,0,706,0,0,709,709,0,0,709,
709,709,709,709,709,709,709,0,0,0,0,0,0,0,0,773,773,0,0,0,0,0,0,706,709,0,0,0,709,0,709,709,
0,707,707,709,0,709,709,0,0,0,706,775,778,776,775,0,0,775,770,778,778,0,0,0,709,709,709,0,0,0,709,706,
737,707,707,707,709,709,0,706,0,0,0,776,0,0,0,773,773,0,0,0,776,0,0,0,709,709,709,0,0,709,709,0,
737,737,0,707,707,709,0,0,0,0,0,775,0,837,773,773,773,773,837,0,775,0,0,0,709,709,709,709,0,709,0,0,
737,737,737,707,707,707,0,0,709,0,0,775,0,773,773,773,773,773,773,0,0,0,0,709,709,709,706,709,709,709,709,709,
737,737,737,707,707,707,0,0,0,0,0,770,0,837,773,773,773,773,837,0,0,0,0,709,0,709,0,0,709,709,709,0,
737,737,737,707,0,0,707,707,0,0,0,778,0,0,0,0,0,0,0,0,709,0,709,709,709,0,0,0,709,709,0,0,
737,707,707,707,707,707,707,0,0,0,0,775,775,770,0,770,0,974,0,0,0,0,709,709,0,0,0,0,709,0,0,706,
737,707,707,707,709,0,0,0,706,0,0,0,0,0,0,0,0,0,0,0,0,0,709,0,0,709,709,0,0,0,709,709,
0,707,0,706,709,709,709,0,709,0,0,0,0,0,0,0,0,0,0,0,709,709,0,0,709,709,709,0,0,709,709,0,
0,709,0,709,709,709,709,709,709,709,0,0,0,709,0,0,0,0,709,0,709,0,0,0,709,709,709,709,709,709,709,709,
707,709,709,709,709,0,0,709,709,709,0,0,0,709,0,0,0,0,0,0,709,0,0,709,0,709,709,709,709,709,709,709,
0,0,0,709,709,0,709,709,709,709,709,0,0,0,0,707,0,709,709,0,0,0,0,709,706,709,709,709,709,709,0,709,
0,0,0,0,0,0,0,0,0,0,0,0,707,707,707,707,707,0,0,0,0,0,709,709,709,709,709,709,709,709,709,709,
0,0,0,0,706,0,706,709,706,0,707,707,707,707,707,707,0,707,0,0,0,706,709,709,709,706,709,709,0,709,709,709
</data>
 </layer>
 <layer id="1" name="Ruins" width="32" height="32" visible="0">
  <data encoding="csv">
0,2,5,0,5,2,0,5,5,6,6,6,0,6,6,1,2,2,6,6,6,6,2,6,6,6,6,0,6,2,2,0,
2,5,5,5,5,5,5,0,6,6,0,6,6,6,1,1,2,2,1,5,6,6,6,6,6,6,6,6,6,6,6,6,
0,5,5,5,5,6,6,6,6,6,6,6,6,6,1,1,1,2,2,5,1,5,1,6,6,6,6,6,6,6,6,6,
5,5,5,5,6,6,6,6,6,6,6,6,6,6,6,2,1,1,2,1,1,1,1,5,1,5,5,6,6,6,6,0,
5,0,5,5,6,6,6,6,6,6,1,6,6,6,0,1,0,0,1,6,1,6,0,5,5,0,5,5,5,6,6,2,
1,2,1,1,6,5,6,6,6,1,6,2,2,2,0,66,66,0,0,0,6,6,6,2,5,5,5,6,1,1,6,1,
5,5,1,1,6,2,6,6,6,6,6,2,65,65,65,65,66,65,65,0,6,6,6,6,1,1,3,3,1,1,2,2,
5,1,5,5,6,6,6,6,6,6,6,2,65,0,0,2,66,206,65,0,2,6,2,1,1,0,0,3,1,2,2,2,
5,2,2,5,5,1,2,6,6,2,6,2,65,0,194,199,0,0,65,2,2,2,2,0,0,66,0,2,2,0,2,2,
1,1,2,1,2,1,1,1,6,6,2,0,65,2,0,0,0,0,65,65,65,65,65,65,66,65,65,65,1,2,1,0,
2,3,1,3,2,2,2,2,2,2,0,0,0,0,0,0,0,0,97,0,0,131,0,0,0,0,0,65,1,3,1,0,
0,3,2,2,2,3,2,65,65,98,65,65,65,0,0,0,0,0,65,65,65,65,65,65,65,65,65,65,2,2,1,2,
33,3,3,2,3,0,2,65,2,2,2,0,0,0,0,0,226,0,97,0,0,0,0,0,0,0,99,65,66,0,2,2,
33,2,3,3,3,3,2,65,2,0,0,0,0,0,0,193,0,0,65,65,65,65,65,65,65,65,65,65,2,2,1,0,
33,33,2,3,3,3,0,0,0,0,0,0,0,0,0,0,0,0,97,38,38,38,38,35,38,38,38,65,66,0,2,3,
33,33,33,33,33,2,2,2,2,0,0,266,0,0,38,0,0,38,65,65,65,65,65,65,65,65,65,65,0,0,2,1,
33,33,33,33,33,3,3,65,2,0,266,0,0,0,0,0,38,35,65,2,2,2,66,0,0,66,0,0,0,3,2,2,
33,3,33,0,3,3,0,65,1,2,2,1,1,1,0,0,0,38,65,1,2,0,0,0,0,0,0,0,3,1,1,2,
33,33,33,3,2,3,0,65,65,65,65,65,65,2,0,266,0,2,66,2,2,2,2,0,0,0,0,0,1,2,3,1,
33,33,33,0,3,0,66,0,0,0,0,66,65,2,2,2,0,0,0,2,0,2,2,2,2,0,0,0,2,2,2,1,
33,0,3,2,1,0,0,0,1,1,1,0,65,1,1,2,0,0,0,2,266,2,1,0,2,2,0,2,1,5,5,5,
3,3,2,1,3,5,5,2,2,5,5,5,65,1,2,2,2,0,0,2,2,2,1,2,2,1,2,2,1,2,2,5,
0,3,5,5,5,1,5,5,5,0,0,5,65,2,1,66,2,1,0,0,2,5,0,5,2,1,5,2,0,5,5,0,
1,1,1,6,6,5,0,0,1,0,5,2,65,65,65,65,66,1,2,2,2,5,0,2,2,2,5,2,2,5,5,5,
2,1,6,6,6,6,5,0,0,5,5,2,2,1,66,1,2,1,2,2,5,5,5,2,2,2,5,0,2,5,5,5,
0,1,6,2,6,1,5,5,1,1,5,2,2,3,2,66,2,3,2,0,2,2,2,2,2,2,5,5,5,5,5,0,
0,5,1,1,1,1,6,1,1,5,5,1,3,33,1,2,2,2,2,2,2,5,2,1,2,2,2,5,5,5,5,0,
5,5,5,1,1,1,1,1,5,5,2,1,33,33,33,2,2,1,5,0,1,5,5,1,2,2,2,5,5,5,1,2,
5,0,5,0,3,1,1,5,5,1,1,3,33,33,3,1,1,1,0,0,2,2,5,5,5,1,5,0,0,5,5,1,
2,5,5,1,1,1,1,5,5,1,1,3,3,3,1,5,5,5,0,2,2,1,5,5,5,5,0,0,0,5,5,1,
5,5,5,1,1,2,2,1,5,2,3,3,1,5,5,5,1,0,2,2,2,1,2,2,1,5,1,1,1,1,1,0,
0,1,1,0,1,2,1,1,5,1,1,1,1,5,1,1,0,1,2,2,1,1,2,0,1,1,1,1,0,1,1,2
</data>
 </layer>
 <layer id="5" name="Dungeon A" width="32" height="32" visible="0">
  <data encoding="csv">
0,0,2,0,0,0,0,0,0,0,0,0,0,0,0,0,0,0,0,0,0,0,0,0,0,0,0,0,0,0,0,0,
0,65,66,65,65,65,65,65,65,65,65,0,0,0,0,0,0,0,0,0,0,0,0,0,0,0,0,0,0,0,0,0,
0,65,71,72,71,71,71,72,73,71,65,0,0,0,0,0,0,0,0,0,0,0,0,65,65,65,65,66,65,65,65,0,
0,65,72,71,75,71,71,73,71,71,65,2,0,0,0,0,0,0,0,0,0,0,0,65,72,71,71,71,71,71,65,0,
0,65,71,71,71,73,71,71,74,71,65,66,65,65,65,65,65,0,0,2,0,0,0,65,71,73,71,74,71,72,65,0,
0,65,73,71,71,71,71,71,71,71,65,71,71,72,73,73,65,2,0,0,0,0,0,65,73,71,0,0,71,71,65,0,
0,65,72,73,71,71,71,71,71,71,65,74,0,71,0,71,65,66,65,65,65,65,65,65,71,71,0,0,71,71,65,0,
0,65,73,71,71,71,74,72,71,71,449,71,71,71,71,71,449,71,71,72,72,71,71,449,71,71,0,0,71,71,65,0,
0,65,74,71,71,74,72,74,71,71,65,71,0,72,0,71,65,65,65,65,65,65,65,65,71,75,0,0,71,72,65,0,
0,65,71,71,71,71,71,71,71,71,65,75,71,71,75,73,65,2,0,0,2,0,0,65,71,71,0,0,73,73,65,0,
0,65,71,71,72,71,71,71,71,71,65,65,65,71,65,65,65,0,0,0,0,0,0,66,71,71,71,71,71,73,65,0,
0,65,71,71,71,71,71,71,71,71,65,0,65,71,65,0,0,0,0,0,0,0,0,65,71,72,71,71,71,71,65,0,
0,65,71,75,71,71,71,75,71,73,65,0,65,73,65,0,0,0,0,0,0,0,0,65,65,65,65,65,65,65,65,0,
0,65,65,65,65,65,65,65,65,65,65,0,65,71,65,0,0,0,0,0,0,0,0,0,0,2,65,75,66,2,0,0,
0,0,0,0,0,0,0,0,0,0,0,0,65,72,65,0,0,0,0,0,0,0,0,0,0,0,65,71,65,0,0,0,
0,0,0,0,65,65,65,65,65,0,0,0,65,72,65,0,0,0,0,0,0,0,0,0,0,0,65,74,65,0,0,0,
0,0,0,0,65,73,75,73,65,0,0,2,65,71,65,0,0,0,0,65,65,65,65,65,65,0,65,72,65,0,0,0,
0,0,65,65,65,71,71,71,65,65,65,65,65,71,65,66,65,65,65,65,71,71,71,71,65,0,65,72,65,0,0,0,
0,0,65,71,0,71,71,71,449,74,74,71,71,71,72,74,71,71,71,449,71,72,74,71,65,0,65,71,65,0,0,0,
0,0,65,65,65,73,71,71,65,65,65,65,65,65,65,65,65,65,65,65,75,71,74,71,65,65,65,71,65,0,0,0,
0,0,0,0,65,71,71,71,66,2,0,0,0,0,0,0,0,0,0,65,75,71,71,71,449,71,71,71,65,0,0,0,
0,0,0,0,65,71,74,71,65,0,0,0,0,0,0,0,0,0,2,65,71,71,71,71,65,65,65,65,65,0,0,0,
0,0,0,0,65,71,71,74,65,0,0,0,0,0,65,65,65,65,65,65,71,71,71,74,65,2,2,0,0,0,0,0,
0,0,0,0,65,71,71,72,65,2,0,0,0,0,65,75,73,71,71,71,73,71,74,0,65,0,0,0,0,0,0,0,
0,0,0,2,66,72,71,71,65,0,0,0,0,0,65,71,99,71,74,73,71,71,0,0,65,0,0,0,0,0,0,0,
0,0,0,0,65,73,71,71,65,0,0,0,0,0,65,72,71,71,71,72,71,72,73,0,65,0,0,0,2,0,0,0,
0,0,0,0,65,71,71,72,65,0,0,0,0,0,65,71,71,71,71,72,71,71,71,74,65,65,65,65,65,66,65,0,
0,0,0,0,65,71,71,71,65,0,0,0,0,0,65,71,71,72,71,71,74,71,71,71,0,71,71,71,72,0,66,0,
0,0,0,0,65,65,65,65,65,0,0,0,0,2,66,71,71,71,71,71,71,71,71,71,65,65,65,65,65,66,65,0,
0,0,0,0,0,0,0,0,0,0,0,0,0,0,65,72,71,75,71,74,73,71,74,72,65,2,0,0,0,0,0,0,
0,0,0,0,0,0,0,0,0,0,0,0,0,0,65,65,65,65,65,65,65,65,65,65,65,0,0,0,0,0,0,0,
0,0,0,0,0,0,0,0,0,0,0,0,0,0,0,0,0,0,0,0,0,0,0,0,0,0,0,0,0,0,0,0
</data>
 </layer>
 <layer id="6" name="Dungeon B" width="32" height="32" visible="0">
  <data encoding="csv">
0,0,0,0,0,0,0,0,0,0,0,0,0,0,0,0,0,0,0,0,0,0,0,0,0,0,0,0,0,0,0,0,
0,0,0,0,0,0,0,0,0,0,0,0,0,0,0,0,0,0,0,0,0,0,0,0,0,0,0,0,0,0,0,0,
0,0,0,0,0,0,0,0,0,0,0,0,0,0,0,0,0,0,0,0,0,0,0,0,0,0,0,0,0,0,0,0,
0,0,0,0,0,0,0,3,0,0,0,0,0,0,0,0,0,0,0,0,0,0,0,0,0,0,0,0,0,0,0,0,
0,0,0,0,0,0,37,0,0,0,0,0,0,0,0,0,0,0,0,0,0,0,0,0,0,0,3,0,0,0,0,0,
0,0,0,0,0,0,37,37,0,0,0,0,0,0,0,0,0,0,0,0,0,0,0,0,0,3,33,33,0,0,0,0,
0,0,0,0,3,0,0,0,0,0,0,0,0,0,0,0,0,0,0,0,0,0,0,0,0,0,33,33,0,0,0,0,
0,0,3,0,0,0,3,0,0,0,97,0,0,0,0,0,97,0,0,0,0,0,0,97,0,0,33,33,3,0,0,0,
0,0,3,0,0,0,0,0,0,0,0,0,0,0,0,0,0,0,0,0,0,0,0,0,0,0,33,33,3,0,0,0,
0,0,0,0,0,0,0,274,0,0,0,0,0,0,0,0,0,0,0,0,0,0,0,0,0,0,33,33,0,0,0,0,
0,0,3,0,0,0,0,0,274,0,0,0,0,0,0,0,0,0,0,0,0,0,72,0,0,0,3,0,0,0,0,0,
0,0,3,3,0,0,0,0,0,0,0,0,0,0,0,0,0,0,0,0,72,72,75,0,0,0,0,0,0,0,0,0,
0,0,3,3,3,0,3,0,0,0,0,0,0,0,0,0,0,0,0,72,72,0,0,0,0,0,0,0,0,0,0,0,
0,0,0,0,0,0,0,0,0,0,0,0,0,0,0,0,0,74,72,72,72,73,0,0,0,0,0,0,0,0,0,0,
0,0,0,0,0,0,0,0,0,0,0,0,0,0,0,0,75,72,0,0,0,0,0,0,0,0,0,0,0,0,0,0,
0,0,0,0,0,0,0,0,0,0,0,0,0,0,0,0,72,0,0,0,0,0,0,0,0,0,0,0,0,0,0,0,
0,0,0,0,0,0,0,0,0,0,0,0,0,0,0,72,75,0,0,0,0,0,0,0,0,0,0,0,0,0,0,0,
0,0,0,0,0,0,275,0,0,0,0,0,0,0,0,0,0,0,0,0,0,0,3,3,0,0,0,274,0,0,0,0,
0,0,0,0,98,0,275,0,97,0,0,0,0,0,0,0,0,0,0,97,0,0,0,3,0,0,0,0,0,0,0,0,
0,0,0,0,0,0,0,0,0,0,0,0,0,0,0,0,0,0,0,0,0,0,0,0,0,0,0,0,0,0,0,0,
0,0,0,0,0,0,0,0,0,0,0,0,0,0,0,0,0,0,0,0,0,0,226,0,97,0,0,0,0,0,0,0,
0,0,0,0,0,0,0,275,0,0,0,0,0,0,0,0,0,0,0,0,0,0,0,0,0,0,0,0,0,0,0,0,
0,0,0,0,0,37,0,0,0,0,0,0,0,0,0,0,0,0,0,0,0,37,0,0,0,0,0,0,0,0,0,0,
0,0,0,0,0,0,0,0,0,0,0,0,0,0,0,0,0,0,0,0,0,0,0,0,0,0,0,0,0,0,0,0,
0,0,0,0,0,0,0,0,0,0,0,0,0,0,0,0,0,0,0,0,0,0,0,0,0,0,0,0,0,0,0,0,
0,0,0,0,0,0,0,0,0,0,0,0,0,0,0,0,0,0,0,0,0,0,0,0,0,0,0,0,0,0,0,0,
0,0,0,0,0,0,209,0,0,0,0,0,0,0,0,0,0,0,0,0,0,0,0,0,0,0,0,0,0,0,0,0,
0,0,0,0,0,0,0,0,0,0,0,0,0,0,0,0,0,0,197,0,35,0,0,0,98,0,0,0,0,0,0,0,
0,0,0,0,0,0,0,0,0,0,0,0,0,0,0,0,0,0,0,35,35,35,0,0,0,0,0,0,0,0,0,0,
0,0,0,0,0,0,0,0,0,0,0,0,0,0,0,0,0,0,0,0,0,0,0,0,0,0,0,0,0,0,0,0,
0,0,0,0,0,0,0,0,0,0,0,0,0,0,0,0,0,0,0,0,0,0,0,0,0,0,0,0,0,0,0,0,
0,0,0,0,0,0,0,0,0,0,0,0,0,0,0,0,0,0,0,0,0,0,0,0,0,0,0,0,0,0,0,0
</data>
 </layer>
</map>
